frontend/public/svg/interface/backward.svg

<svg width="92" height="101" viewBox="0 0 92 101" fill="none" xmlns="http://www.w3.org/2000/svg">
<g clip-path="url(#clip0)">
<path d="M90.915 80.4837C90.5569 60.0979 90.2305 39.3715 89.9153 19.323L89.8425 14.7262C89.8197 13.276 89.8191 11.8251 89.8184 10.3755C89.8184 8.64292 89.8185 6.85212 89.7762 5.08785C89.6852 1.06986 88.6439 0.824448 85.0468 0.594608C80.8393 0.32398 77.889 2.27796 75.7901 4.00985C71.181 7.81291 66.6765 11.6943 62.3998 15.5452C53.5806 23.4912 44.803 32.6875 34.7748 44.4857L34.4317 44.8948C33.2981 46.2544 32.3178 47.434 30.5407 47.3272C30.4038 47.3191 30.2677 47.3536 30.1513 47.4258C30.0348 47.4981 29.9438 47.6046 29.8907 47.7306C28.7324 50.4369 29.7932 52.2923 30.9834 53.7517C31.5467 54.4423 32.11 55.1381 32.6734 55.839C34.9215 58.7449 37.3363 61.5188 39.906 64.147C45.156 69.3103 50.707 74.19 55.441 78.2824C62.7327 84.582 69.9934 90.5805 76.1346 95.6175C78.0944 97.3345 80.2777 98.7803 82.6262 99.9159C83.4692 100.294 84.3831 100.492 85.3081 100.499C86.5138 100.501 87.6903 100.132 88.6783 99.4432C89.6254 98.7544 90.3781 97.8331 90.8623 96.7687C91.3466 95.7049 91.5468 94.5337 91.4428 93.3703C91.1568 88.6336 90.9839 84.4156 90.915 80.4837ZM82.0698 11.9202C82.0574 36.4581 81.7987 59.7703 81.2807 83.0896C79.2397 81.4374 77.2435 79.8026 75.2734 78.1892C70.0565 73.9161 65.1286 69.8826 59.9806 66.0064C54.7721 62.0842 49.3069 58.3058 44.0218 54.6517C41.9175 53.1975 39.8125 51.7361 37.707 50.2672C38.2599 49.8788 38.8139 49.4924 39.369 49.1083C47.7943 43.269 54.2716 38.1194 59.7537 32.8998C65.6083 27.3253 71.5898 21.6862 77.3742 16.2322L80.3096 13.465C80.8426 12.962 81.41 12.4803 82.0646 11.9222L82.0698 11.9202Z" fill="black"/>
<path d="M11.9379 26.1022C11.8235 21.3358 11.4575 16.504 11.1032 11.8321C10.9862 10.286 10.8692 8.7399 10.7607 7.19447C10.6566 5.93581 10.4238 4.69108 10.0659 3.47953C9.8885 2.67911 9.43285 1.96682 8.77947 1.46854C8.12602 0.970271 7.31677 0.718037 6.49476 0.756384H6.47587C5.64664 0.705833 4.82719 0.956792 4.16969 1.46262C3.51219 1.96845 3.06132 2.69479 2.90087 3.50672C2.42857 5.48465 2.14736 7.50304 2.06107 9.53431C1.82057 17.466 1.63734 25.4004 1.48979 31.7751L1.35974 37.2187C1.35909 37.2297 1.35909 37.2407 1.35974 37.2517C1.46894 41.6296 1.53657 45.594 1.60222 49.4274C1.74002 57.4602 1.85831 64.398 2.31006 71.3165C2.67861 76.9673 3.46319 82.6726 4.22174 88.1913C4.57534 90.7655 4.94193 93.4271 5.26173 96.0453C5.47038 97.7559 6.27829 98.6228 7.66667 98.6228H7.69598C8.68593 98.6137 9.91443 98.1592 10.1478 96.0453C10.4156 93.6246 10.7542 91.1591 11.0818 88.7753C11.9125 83.5259 12.4185 78.2305 12.597 72.9196C12.7653 59.4024 12.4227 45.6587 12.0912 32.3681L11.9379 26.1022Z" fill="black"/>
</g>
<defs>
<clipPath id="clip0">
<rect width="91" height="101" fill="white" transform="translate(0.777344)"/>
</clipPath>
</defs>
</svg>

<svg xmlns="http://www.w3.org/2000/svg" width="92" height="101" fill="none" viewBox="0 0 92 101"><g fill="#000" clip-path="url(#a)"><path d="M90.915 80.484c-.358-20.386-.684-41.112-1-61.161l-.073-4.597c-.022-1.45-.023-2.9-.024-4.35 0-1.733 0-3.524-.042-5.288-.09-4.018-1.132-4.264-4.73-4.493C80.84.324 77.89 2.278 75.79 4.01A411 411 0 0 0 62.4 15.545c-8.82 7.946-17.597 17.143-27.625 28.94l-.343.41c-1.134 1.36-2.114 2.539-3.891 2.432a.665.665 0 0 0-.65.404c-1.159 2.706-.098 4.561 1.092 6.02q.846 1.037 1.69 2.088a95 95 0 0 0 7.233 8.308c5.25 5.163 10.801 10.043 15.535 14.135 7.292 6.3 14.552 12.299 20.694 17.336a29 29 0 0 0 6.491 4.298 6.7 6.7 0 0 0 2.682.583 5.9 5.9 0 0 0 3.37-1.056 6.8 6.8 0 0 0 2.184-2.674 6.75 6.75 0 0 0 .58-3.399c-.285-4.736-.458-8.954-.527-12.886M82.07 11.92a3250 3250 0 0 1-.79 71.17c-2.04-1.653-4.037-3.287-6.007-4.9-5.216-4.274-10.144-8.307-15.292-12.184-5.209-3.922-10.674-7.7-15.96-11.354q-3.156-2.182-6.314-4.385.83-.582 1.662-1.159C47.794 43.27 54.272 38.12 59.754 32.9c5.854-5.575 11.836-11.214 17.62-16.668l2.936-2.767c.533-.503 1.1-.985 1.755-1.543zM11.938 26.102c-.115-4.766-.48-9.598-.835-14.27a803 803 0 0 1-.342-4.638 18.5 18.5 0 0 0-.695-3.714 3.48 3.48 0 0 0-1.287-2.011A3.5 3.5 0 0 0 6.495.756h-.02a3.44 3.44 0 0 0-2.305.707A3.42 3.42 0 0 0 2.9 3.507a32 32 0 0 0-.839 6.027c-.24 7.932-.424 15.866-.571 22.241l-.13 5.444v.033c.109 4.378.177 8.342.242 12.175.138 8.033.256 14.971.708 21.89.369 5.65 1.153 11.356 1.912 16.874.353 2.575.72 5.236 1.04 7.854.208 1.71 1.016 2.578 2.405 2.578h.029c.99-.01 2.218-.464 2.452-2.578.268-2.42.606-4.886.934-7.27.83-5.25 1.336-10.544 1.515-15.855.168-13.518-.174-27.261-.506-40.552z"/></g><defs><clipPath id="a"><path fill="#fff" d="M.777 0h91v101h-91z"/></clipPath></defs></svg>
